X:255
T:Fisher's Hornpipe
R:Hornpipe
M:C|
L:1/8
K:F
|:c2|fc Ac Bd cB|Ac Ac Bd cB|Ac Fc Bd Gd|Ac FA G2 (3cde|
fc Ac Bd cB|Ac Fc Bd cB|AB cd ef ge|f2a2f2:|
|:ef|ge ce ge bg|af cf af ba|ge ce ga ba|gf ed c2 Bc|
dB FB dB fd|cA FA cA fc|df ed cB AG|F2A2F2:|

